icons/new/svg/brush_detailed.svg

<svg xmlns="http://www.w3.org/2000/svg" viewBox="0 0 24 24" baseProfile="tiny"><path fill="none" d="M0 0h24v24H0z"/><path d="M11.86 6.455C13.25 4 21.408-4.808 21.408-4.808a.593.593 0 0 1 .874 0l5.538 5.89a.688.688 0 0 1 0 .93S20.382 9.698 17.262 11.6a1.302 1.302 0 0 1-.176.086l.184-.362s.242-1.553-1.265-3.155c-.933-.993-1.813-1.946-3.548-1.975-.24-.005-.426.052-.596.26z" fill="#6b6b6b"/><path d="M137.199 30.686c.629-.231 2.779-.316 3.974-.34.515.383.912.976 1.011 1.855v.972c-.087.695-.368 1.216-.746 1.596-1.034-.033-3.227-.161-4.105-.511l-.128-.105s.044.059.076.062c.032.003.115-.045.115-.045s.404-.425.404-1.476c0-.651.004-1.27-.401-1.886-.048-.073-.097-.117-.2-.122z" fill="url(#_Linear2)" transform="matrix(2.10739 -2.24156 1.43324 1.52449 -321.252 267.214)"/><path d="M141.173 30.346c.515.383.912.976 1.011 1.855v.972c-.087.695-.368 1.216-.746 1.596-1.034-.033-3.227-.161-4.105-.511-.455-.182-.474-1.677-.474-1.677l-.002-.711.02-.358c.028-.392.118-.743.322-.826.567-.228 2.762-.316 3.974-.34z" fill="url(#_Linear3)" transform="matrix(2.10739 -2.24156 1.43324 1.52449 -321.252 267.214)"/><path d="M138.195 30.776c.894.612.805 1.279.805 1.918 0 .83-.502 1.294-.707 1.446l-.088-.014c-.717-.168-.747-1.554-.747-1.554l-.002-.659.031-.332c.044-.364.185-.692.507-.766.065-.014.203-.038.201-.039z" fill="url(#_Radial4)" transform="matrix(1.33735 -1.42249 1.54595 1.64437 -220.324 152.079)"/><path d="M137.266 31.008a.805.805 0 0 1 .501-.322.636.636 0 0 1 .432.122c.877.616.868 1.235.868 1.886 0 1.051-.743 1.427-.84 1.499a.5.5 0 0 1-.283.034.462.462 0 0 1-.163-.074s-.729-1.451-.751-1.572l-.003-.711.043-.358.196-.504z" fill="url(#_Linear5)" transform="matrix(.97402 -1.03603 1.43324 1.52449 -166.307 102.405)"/><path d="M12.005 6.584c.119-.167.198-.24.565-.248 1.514.116 2.417.997 3.3 1.938 1.428 1.518 1.262 2.924 1.262 2.924-.188 1.4-3.233-1.153-3.233-1.153-.228-.243-2.559-2.22-1.894-3.461z"/><path d="M223.873 61.787c1.679.401 4.879 2.215 4.733 4.385-.618 6.138-6.964 5.549-10.094 10.041-.115.166-.714-3.816-1.003-6.103-.589-4.648 3.216-8.208 6.364-8.323z" fill="url(#_Linear6)" transform="matrix(-.26872 -1.06674 -1.0636 .30313 142.783 230.962)"/><path d="M229.921 63.501c-.673-1.841-2.152-3.331-3.663-4.144-.885-.313-1.764-.412-2.453-.277-3.53.691-7.189 5.383-5.697 10.522.734 2.528 2.118 6.913 2.218 6.705 2.687-5.535 9.765-6.073 9.595-12.806z" fill="url(#_Radial8)" transform="matrix(-.37762 -.88132 -.8833 .40781 153.605 184.028)"/><g fill-opacity=".665" stroke-opacity=".665"><path d="M226.69 62.817c-1.47-.196-2.884 1.058-3.761 2.123-1.99 2.419-3.483 5.234-5.638 7.508-.885.934-1.837 1.796-2.731 2.718-.301.31-.599.615-.922.904l-.278.247c-.042.037-.129.161-.131.105" fill="none" stroke="#8f5d32" stroke-width=".21" stroke-linecap="round" transform="matrix(.9471 0 0 1.00738 -199.482 -54.943)"/><path d="M226.699 62.261c-1.534.233-3.116.797-4.377 1.721-1.079.79-1.982 1.92-2.742 3.007-1.317 1.884-2.352 3.91-3.594 5.839-.865 1.343-2 2.579-3.043 3.788" fill="none" stroke="#8f5d32" stroke-width=".21" stroke-linecap="round" transform="matrix(.9471 0 0 1.00738 -199.482 -54.943)"/><path d="M226.67 61.806c-1.112.038-2.099.443-3.108.884-1.947.852-3.746 1.994-5.013 3.745-.868 1.201-1.493 2.606-1.998 3.995-.292.804-.511 1.632-.884 2.405-.598 1.242-1.528 2.32-2.486 3.301" fill="none" stroke="#8f5d32" stroke-width=".21" stroke-linecap="round" transform="matrix(.9471 0 0 1.00738 -199.482 -54.943)"/><path d="M226.684 61.365c-1.013.008-1.966.279-2.913.627-1.131.416-2.296 1.01-3.24 1.764-1.381 1.102-2.52 2.638-3.256 4.237-.558 1.21-.91 2.488-1.41 3.718-.517 1.272-1.144 2.463-1.798 3.667" fill="none" stroke="#8f5d32" stroke-width=".21" stroke-linecap="round" transform="matrix(.9471 0 0 1.00738 -199.482 -54.943)"/><path d="M226.348 61.65c-1.331-.472-3.022.029-4.263.588-2.555 1.154-4.412 3.04-5.412 5.68-.302.797-.47 1.637-.701 2.455-.173.616-.411 1.211-.637 1.809-.573 1.515-1.248 3.086-2.541 4.128" fill="none" stroke="#8f5d32" stroke-width=".21" stroke-linecap="round" transform="matrix(.9471 0 0 1.00738 -199.482 -54.943)"/><path d="M227.395 63.076c1.2 1.487 1.245 3.633.397 5.302-.38.746-.974 1.429-1.542 2.036-1.777 1.9-4.379 3.172-6.856 3.873-1.093.31-2.218.459-3.321.723-1.051.253-2.085.597-3.122.899" fill="none" stroke="#8f5d32" stroke-width=".21" stroke-linecap="round" transform="matrix(.9471 0 0 1.00738 -199.482 -54.943)"/><path d="M227.93 63.055c-.284 5.272-4.916 9.236-9.531 11.079-1.946.777-4.055.992-5.956 1.894" fill="none" stroke="#8f5d32" stroke-width=".21" stroke-linecap="round" transform="matrix(.9471 0 0 1.00738 -199.482 -54.943)"/><path d="M227.573 62.821c-.481 1.582-.983 3.284-1.918 4.666-2.315 3.42-6.126 5.352-9.697 7.164-1.507.764-2.986 1.583-4.478 2.377" fill="none" stroke="#8f5d32" stroke-width=".21" stroke-linecap="round" transform="matrix(.9471 0 0 1.00738 -199.482 -54.943)"/><path d="M227.172 62.171c.145.857-.175 1.531-.606 2.271-.728 1.25-1.746 2.374-2.769 3.388-2.223 2.203-4.561 4.422-7.211 6.111-1.932 1.232-4.061 2.124-6.132 3.087" fill="none" stroke="#8f5d32" stroke-width=".21" stroke-linecap="round" transform="matrix(.9471 0 0 1.00738 -199.482 -54.943)"/><path d="M227.569 62.987c-1.151.416-2.035 1.331-2.91 2.158-1.935 1.831-3.547 3.896-5.259 5.926-.465.551-1.009 1.03-1.522 1.534-1.567 1.538-3.207 2.997-4.766 4.54M227.416 61.859c-3.462.418-6.646 2.403-8.639 5.282-.674.973-1.137 2.064-1.675 3.113-.703 1.372-1.435 2.724-2.249 4.034" fill="none" stroke="#8f5d32" stroke-width=".21" stroke-linecap="round" transform="matrix(.9471 0 0 1.00738 -199.482 -54.943)"/><path d="M227.785 61.933c-3.455.919-6.123 3.038-8.131 5.975-.966 1.412-1.657 2.992-2.625 4.403-1.174 1.712-2.694 3.118-4.117 4.614" fill="none" stroke="#8f5d32" stroke-width=".21" stroke-linecap="round" transform="matrix(.9471 0 0 1.00738 -199.482 -54.943)"/><path d="M227.613 62.303c-1.424.53-2.703 1.654-3.76 2.721-1.927 1.944-3.568 4.099-5.267 6.239-1.438 1.812-3.247 3.314-4.941 4.878" fill="none" stroke="#8f5d32" stroke-width=".21" stroke-linecap="round" transform="matrix(.9471 0 0 1.00738 -199.482 -54.943)"/><path d="M227.317 63.456c-1.197 2.904-3.755 5.041-6.122 6.979-2.379 1.948-4.856 3.897-7.77 4.973" fill="none" stroke="#8f5d32" stroke-width=".21" stroke-linecap="round" transform="matrix(.9471 0 0 1.00738 -199.482 -54.943)"/><path d="M227.323 63.471c-.633 1.961-2.075 3.599-3.457 5.075-2.871 3.065-6.28 5.507-9.962 7.502" fill="none" stroke="#8f5d32" stroke-width=".21" stroke-linecap="round" transform="matrix(.9471 0 0 1.00738 -199.482 -54.943)"/><path d="M227.463 63.228c.119.588.154 1.137.132 1.735-.13 3.685-2.848 6.293-5.698 8.255-.959.66-1.93 1.284-2.962 1.825-1.041.547-2.118 1.08-3.233 1.46-1.217.415-2.479.564-3.736.8" fill="none" stroke="#8f5d32" stroke-width=".21" stroke-linecap="round" transform="matrix(.9471 0 0 1.00738 -199.482 -54.943)"/><path d="M227.612 63.398c-1.926 1.84-3.907 3.621-5.816 5.479-1.56 1.518-3.058 3.096-4.613 4.617-.852.833-1.786 1.576-2.601 2.446" fill="none" stroke="#8f5d32" stroke-width=".21" stroke-linecap="round" transform="matrix(.9471 0 0 1.00738 -199.482 -54.943)"/><path d="M226.732 62.36c-1.441.427-2.833 1.499-3.913 2.512-1.577 1.478-2.933 3.23-4.046 5.083-.873 1.454-1.555 3.009-2.464 4.443M225.578 61.42c-1.623.204-3.026.906-4.364 1.824-.655.449-1.317.892-1.898 1.436-1.489 1.395-2.593 3.261-3.261 5.184" fill="none" stroke="#8f5d32" stroke-width=".21" stroke-linecap="round" transform="matrix(.9471 0 0 1.00738 -199.482 -54.943)"/></g><g><path d="M228.232 64.462c-.859-1.588-2.955-2.727-4.359-2.675-3.148.115-6.953 3.675-6.364 8.323.144 1.144.367 2.711.567 3.971l.436 2.132c3.13-4.492 9.476-3.903 10.094-10.041.03-.297.009-.589-.057-.882l-.317-.828z" fill="url(#_Radial9)" transform="matrix(-.26917 -1.06851 -1.06303 .30297 142.85 231.376)"/></g><defs><linearGradient id="_Linear2" x2="1" gradientUnits="userSpaceOnUse" gradientTransform="matrix(.1081 3.46074 -2.35366 .15894 137.852 29.627)"><stop offset="0"/><stop offset=".2" stop-color="#0d0d0d"/><stop offset=".3" stop-color="#323232"/><stop offset=".3" stop-color="#5e5e5e"/><stop offset=".5" stop-color="#fff"/><stop offset=".9" stop-color="#5f5f5f"/><stop offset="1" stop-color="#515151" stop-opacity=".784"/></linearGradient><linearGradient id="_Linear3" x2="1" gradientUnits="userSpaceOnUse" gradientTransform="matrix(.12105 -2.03602 1.3847 .17798 138.727 35.091)"><stop offset="0"/><stop offset=".4" stop-color="#181818" stop-opacity=".686"/><stop offset="1" stop-color="#4b4b4b" stop-opacity="0"/></linearGradient><radialGradient r="1" id="_Radial4" cx="0" gradientUnits="userSpaceOnUse" gradientTransform="matrix(.92429 0 0 1.66105 138.098 32.432)" cy="0"><stop offset="0" stop-color="#d1d8dc"/><stop offset=".6" stop-color="#d1d8dc" stop-opacity=".824"/><stop offset=".8" stop-color="#d1d8dc" stop-opacity=".42"/><stop offset="1" stop-color="#d1d8dc" stop-opacity="0"/></radialGradient><linearGradient id="_Linear5" x2="1" gradientUnits="userSpaceOnUse" gradientTransform="matrix(-.03791 -3.27825 4.82387 -.02576 138.055 34.356)"><stop offset="0" stop-color="#3a4348"/><stop offset="1" stop-color="#d1d8dc"/></linearGradient><linearGradient id="_Linear6" x2="1" gradientUnits="userSpaceOnUse" gradientTransform="matrix(9.76828 3.14276 3.14276 -9.76828 218.27 64.46)"><stop offset="0" stop-color="#874e34"/><stop offset="1" stop-color="#844717"/></linearGradient><radialGradient r="1" id="_Radial8" cx="0" gradientUnits="userSpaceOnUse" gradientTransform="matrix(5.25593 2.02096 4.1531 -10.801 223.945 67.267)" cy="0"><stop offset="0" stop-color="#ffd38a"/><stop offset="1" stop-color="#ffd38a" stop-opacity="0"/></radialGradient><radialGradient r="1" id="_Radial9" cx="0" gradientUnits="userSpaceOnUse" gradientTransform="matrix(-6.95466 12.0478 9.86174 5.75568 219.746 74.352)" cy="0"><stop offset="0" stop-opacity="0"/><stop offset=".7" stop-opacity=".141"/><stop offset=".8" stop-opacity=".533"/><stop offset="1"/></radialGradient></defs></svg>

<?xml version="1.0"?>
<!-- Converted with SVG Converter - Version 0.9.6 (Compiled Fri Dec  1 22:15:06 2017) - Copyright (C) 2011 Nokia -->
<svg xmlns="http://www.w3.org/2000/svg" viewBox="0 0 24 24" width="100%" xml:space="preserve" version="1.1" xmlns:xlink="http://www.w3.org/1999/xlink" height="100%" baseProfile="tiny">
 <g transform="matrix(1,0,0,1,-246,-121)">
  <g transform="matrix(1,0,0,1,33,68)">
   <g id="detailed">
    <rect style="fill:none;" width="24" id="brush_detailed" y="53" x="213" height="24"/>
    <g>
     <g transform="matrix(0.801415,0.852437,-0.872946,0.928521,154.264,-100.13)">
      <path style="fill:rgb(107,107,107);" d="M137.65,45.499C137.077,43.381 137,33.966 137,33.966C137,33.69 137.244,33.465 137.545,33.465L144.455,33.465C144.756,33.465 145,33.69 145,33.966C145,33.966 144.869,42.365 144.038,45.176C144.022,45.226 144.002,45.275 143.978,45.323L143.881,45.023C143.881,45.023 143.121,44.048 141.241,44.048C140.077,44.048 138.969,44.039 137.869,45.017C137.716,45.152 137.634,45.289 137.65,45.499Z"/>
     </g>
     <g transform="matrix(2.10739,-2.24156,1.43324,1.52449,-108.252,320.214)">
      <path style="fill:url(#_Linear2);" d="M137.199,30.686C137.828,30.455 139.978,30.37 141.173,30.346C141.688,30.729 142.085,31.322 142.184,32.201L142.184,33.173C142.097,33.868 141.816,34.389 141.438,34.769C140.404,34.736 138.211,34.608 137.333,34.258L137.205,34.153C137.205,34.153 137.249,34.212 137.281,34.215C137.313,34.218 137.396,34.17 137.396,34.17C137.396,34.17 137.8,33.745 137.8,32.694C137.8,32.043 137.804,31.424 137.399,30.808C137.351,30.735 137.302,30.691 137.199,30.686Z"/>
     </g>
     <g transform="matrix(2.10739,-2.24156,1.43324,1.52449,-108.252,320.214)">
      <path style="fill:url(#_Linear3);" d="M141.173,30.346C141.688,30.729 142.085,31.322 142.184,32.201L142.184,33.173C142.097,33.868 141.816,34.389 141.438,34.769C140.404,34.736 138.211,34.608 137.333,34.258C136.878,34.076 136.859,32.581 136.859,32.581L136.857,31.87L136.877,31.512C136.905,31.12 136.995,30.769 137.199,30.686C137.766,30.458 139.961,30.37 141.173,30.346Z"/>
     </g>
     <g transform="matrix(1.33735,-1.42249,1.54595,1.64437,-7.32409,205.079)">
      <path style="fill:url(#_Radial4);" d="M138.195,30.776C139.089,31.388 139,32.055 139,32.694C139,33.524 138.498,33.988 138.293,34.14L138.205,34.126C137.488,33.958 137.458,32.572 137.458,32.572L137.456,31.913L137.487,31.581C137.531,31.217 137.672,30.889 137.994,30.815C138.059,30.801 138.197,30.777 138.195,30.776Z"/>
     </g>
     <g transform="matrix(0.974018,-1.03603,1.43324,1.52449,46.6927,155.405)">
      <path style="fill:url(#_Linear5);" d="M137.266,31.008C137.377,30.852 137.54,30.736 137.767,30.686C137.955,30.677 138.078,30.723 138.199,30.808C139.076,31.424 139.067,32.043 139.067,32.694C139.067,33.745 138.324,34.121 138.227,34.193C138.126,34.232 138.012,34.247 137.944,34.227C137.886,34.225 137.781,34.153 137.781,34.153C137.781,34.153 137.052,32.702 137.03,32.581C137.03,32.581 137.027,31.87 137.027,31.87L137.07,31.512L137.266,31.008Z"/>
     </g>
     <g transform="matrix(0.923041,-0.981806,1.35823,1.4447,56.1621,150.512)">
      <path d="M137.767,30.686C137.916,30.672 137.996,30.676 138.199,30.808C138.96,31.406 139,32.043 139,32.694C139,33.745 138.194,34.17 138.194,34.17C137.379,34.586 137.03,32.581 137.03,32.581C137.03,32.413 136.774,30.871 137.767,30.686Z"/>
     </g>
     <g transform="matrix(-0.268725,-1.06674,-1.0636,0.303135,355.783,283.962)">
      <path style="fill:url(#_Linear6);" d="M223.873,61.787C225.552,62.188 228.752,64.002 228.606,66.172C227.988,72.31 221.642,71.721 218.512,76.213C218.397,76.379 217.798,72.397 217.509,70.11C216.92,65.462 220.725,61.902 223.873,61.787Z"/>
      <g>
       <g transform="matrix(0.864972,0.136499,-0.136499,0.864972,38.3522,-19.8649)">
        <path style="fill:url(#_Radial8);" d="M229.921,63.501C229.248,61.66 227.769,60.17 226.258,59.357C225.373,59.044 224.494,58.945 223.805,59.08C220.275,59.771 216.616,64.463 218.108,69.602C218.842,72.13 220.226,76.515 220.326,76.307C223.013,70.772 230.091,70.234 229.921,63.501Z"/>
       </g>
       <g id="Strokes">
        <g fill-opacity="0.664937" stroke-opacity="0.664937">
         <g transform="matrix(-0.236089,-0.830809,-0.881097,0.222615,335.383,237.062)">
          <path style="fill:none;stroke:rgb(143,93,50);stroke-width:0.21px;stroke-linecap:round;" d="M226.69,62.817C225.22,62.621 223.806,63.875 222.929,64.94C220.939,67.359 219.446,70.174 217.291,72.448C216.406,73.382 215.454,74.244 214.56,75.166C214.259,75.476 213.961,75.781 213.638,76.07C213.613,76.092 213.389,76.292 213.36,76.317C213.318,76.354 213.231,76.478 213.229,76.422"/>
         </g>
         <g transform="matrix(-0.236089,-0.830809,-0.881097,0.222615,335.383,237.062)">
          <path style="fill:none;stroke:rgb(143,93,50);stroke-width:0.21px;stroke-linecap:round;" d="M226.699,62.261C225.165,62.494 223.583,63.058 222.322,63.982C221.243,64.772 220.34,65.902 219.58,66.989C218.263,68.873 217.228,70.899 215.986,72.828C215.121,74.171 213.986,75.407 212.943,76.616"/>
         </g>
         <g transform="matrix(-0.236089,-0.830809,-0.881097,0.222615,335.383,237.062)">
          <path style="fill:none;stroke:rgb(143,93,50);stroke-width:0.21px;stroke-linecap:round;" d="M226.67,61.806C225.558,61.844 224.571,62.249 223.562,62.69C221.615,63.542 219.816,64.684 218.549,66.435C217.681,67.636 217.056,69.041 216.551,70.43C216.259,71.234 216.04,72.062 215.667,72.835C215.069,74.077 214.139,75.155 213.181,76.136"/>
         </g>
         <g transform="matrix(-0.236089,-0.830809,-0.881097,0.222615,335.383,237.062)">
          <path style="fill:none;stroke:rgb(143,93,50);stroke-width:0.21px;stroke-linecap:round;" d="M226.684,61.365C225.671,61.373 224.718,61.644 223.771,61.992C222.64,62.408 221.475,63.002 220.531,63.756C219.15,64.858 218.011,66.394 217.275,67.993C216.717,69.203 216.365,70.481 215.865,71.711C215.348,72.983 214.721,74.174 214.067,75.378"/>
         </g>
         <g transform="matrix(-0.236089,-0.830809,-0.881097,0.222615,335.383,237.062)">
          <path style="fill:none;stroke:rgb(143,93,50);stroke-width:0.21px;stroke-linecap:round;" d="M226.348,61.65C225.017,61.178 223.326,61.679 222.085,62.238C219.53,63.392 217.673,65.278 216.673,67.918C216.371,68.715 216.203,69.555 215.972,70.373C215.799,70.989 215.561,71.584 215.335,72.182C214.762,73.697 214.087,75.268 212.794,76.31"/>
         </g>
         <g transform="matrix(-0.236089,-0.830809,-0.881097,0.222615,335.383,237.062)">
          <path style="fill:none;stroke:rgb(143,93,50);stroke-width:0.21px;stroke-linecap:round;" d="M227.395,63.076C228.595,64.563 228.64,66.709 227.792,68.378C227.412,69.124 226.818,69.807 226.25,70.414C224.473,72.314 221.871,73.586 219.394,74.287C218.301,74.597 217.176,74.746 216.073,75.01C215.022,75.263 213.988,75.607 212.951,75.909"/>
         </g>
         <g transform="matrix(-0.236089,-0.830809,-0.881097,0.222615,335.383,237.062)">
          <path style="fill:none;stroke:rgb(143,93,50);stroke-width:0.21px;stroke-linecap:round;" d="M227.93,63.055C227.646,68.327 223.014,72.291 218.399,74.134C216.453,74.911 214.344,75.126 212.443,76.028"/>
         </g>
         <g transform="matrix(-0.236089,-0.830809,-0.881097,0.222615,335.383,237.062)">
          <path style="fill:none;stroke:rgb(143,93,50);stroke-width:0.21px;stroke-linecap:round;" d="M227.573,62.821C227.092,64.403 226.59,66.105 225.655,67.487C223.34,70.907 219.529,72.839 215.958,74.651C214.451,75.415 212.972,76.234 211.48,77.028"/>
         </g>
         <g transform="matrix(-0.236089,-0.830809,-0.881097,0.222615,335.383,237.062)">
          <path style="fill:none;stroke:rgb(143,93,50);stroke-width:0.21px;stroke-linecap:round;" d="M227.172,62.171C227.317,63.028 226.997,63.702 226.566,64.442C225.838,65.692 224.82,66.816 223.797,67.83C221.574,70.033 219.236,72.252 216.586,73.941C214.654,75.173 212.525,76.065 210.454,77.028"/>
         </g>
         <g transform="matrix(-0.236089,-0.830809,-0.881097,0.222615,335.383,237.062)">
          <path style="fill:none;stroke:rgb(143,93,50);stroke-width:0.21px;stroke-linecap:round;" d="M227.569,62.987C226.418,63.403 225.534,64.318 224.659,65.145C222.724,66.976 221.112,69.041 219.4,71.071C218.935,71.622 218.391,72.101 217.878,72.605C216.311,74.143 214.671,75.602 213.112,77.145"/>
         </g>
         <g transform="matrix(-0.236089,-0.830809,-0.881097,0.222615,335.383,237.062)">
          <path style="fill:none;stroke:rgb(143,93,50);stroke-width:0.21px;stroke-linecap:round;" d="M227.416,61.859C223.954,62.277 220.77,64.262 218.777,67.141C218.103,68.114 217.64,69.205 217.102,70.254C216.399,71.626 215.667,72.978 214.853,74.288"/>
         </g>
         <g transform="matrix(-0.236089,-0.830809,-0.881097,0.222615,335.383,237.062)">
          <path style="fill:none;stroke:rgb(143,93,50);stroke-width:0.21px;stroke-linecap:round;" d="M227.785,61.933C224.33,62.852 221.662,64.971 219.654,67.908C218.688,69.32 217.997,70.9 217.029,72.311C215.855,74.023 214.335,75.429 212.912,76.925"/>
         </g>
         <g transform="matrix(-0.236089,-0.830809,-0.881097,0.222615,335.383,237.062)">
          <path style="fill:none;stroke:rgb(143,93,50);stroke-width:0.21px;stroke-linecap:round;" d="M227.613,62.303C226.189,62.833 224.91,63.957 223.853,65.024C221.926,66.968 220.285,69.123 218.586,71.263C217.148,73.075 215.339,74.577 213.645,76.141"/>
         </g>
         <g transform="matrix(-0.236089,-0.830809,-0.881097,0.222615,335.383,237.062)">
          <path style="fill:none;stroke:rgb(143,93,50);stroke-width:0.21px;stroke-linecap:round;" d="M227.317,63.456C226.12,66.36 223.562,68.497 221.195,70.435C218.816,72.383 216.339,74.332 213.425,75.408"/>
         </g>
         <g transform="matrix(-0.236089,-0.830809,-0.881097,0.222615,335.383,237.062)">
          <path style="fill:none;stroke:rgb(143,93,50);stroke-width:0.21px;stroke-linecap:round;" d="M227.323,63.471C226.69,65.432 225.248,67.07 223.866,68.546C220.995,71.611 217.586,74.053 213.904,76.048"/>
         </g>
         <g transform="matrix(-0.236089,-0.830809,-0.881097,0.222615,335.383,237.062)">
          <path style="fill:none;stroke:rgb(143,93,50);stroke-width:0.21px;stroke-linecap:round;" d="M227.463,63.228C227.582,63.816 227.617,64.365 227.595,64.963C227.465,68.648 224.747,71.256 221.897,73.218C220.938,73.878 219.967,74.502 218.935,75.043C217.894,75.59 216.817,76.123 215.702,76.503C214.485,76.918 213.223,77.067 211.966,77.303"/>
         </g>
         <g transform="matrix(-0.236089,-0.830809,-0.881097,0.222615,335.383,237.062)">
          <path style="fill:none;stroke:rgb(143,93,50);stroke-width:0.21px;stroke-linecap:round;" d="M227.612,63.398C225.686,65.238 223.705,67.019 221.796,68.877C220.236,70.395 218.738,71.973 217.183,73.494C216.331,74.327 215.397,75.07 214.582,75.94"/>
         </g>
         <g transform="matrix(-0.236089,-0.830809,-0.881097,0.222615,335.383,237.062)">
          <path style="fill:none;stroke:rgb(143,93,50);stroke-width:0.21px;stroke-linecap:round;" d="M226.732,62.36C225.291,62.787 223.899,63.859 222.819,64.872C221.242,66.35 219.886,68.102 218.773,69.955C217.9,71.409 217.218,72.964 216.309,74.398"/>
         </g>
         <g transform="matrix(-0.236089,-0.830809,-0.881097,0.222615,335.383,237.062)">
          <path style="fill:none;stroke:rgb(143,93,50);stroke-width:0.21px;stroke-linecap:round;" d="M225.578,61.42C223.955,61.624 222.552,62.326 221.214,63.244C220.559,63.693 219.897,64.136 219.316,64.68C217.827,66.075 216.723,67.941 216.055,69.864"/>
         </g>
        </g>
       </g>
      </g>
     </g>
     <g transform="matrix(-0.26917,-1.06851,-1.06303,0.302972,355.85,284.376)">
      <path style="fill:url(#_Radial9);" d="M228.232,64.462C227.373,62.874 225.277,61.735 223.873,61.787C220.725,61.902 216.92,65.462 217.509,70.11C217.653,71.254 217.876,72.821 218.076,74.081L218.512,76.213C221.642,71.721 227.988,72.31 228.606,66.172C228.636,65.875 228.615,65.583 228.549,65.29L228.232,64.462Z"/>
     </g>
    </g>
   </g>
  </g>
 </g>
 <defs>
  <linearGradient x1="0" id="_Linear2" x2="1" gradientUnits="userSpaceOnUse" y2="0" y1="0" gradientTransform="matrix(0.108095,3.46074,-2.35366,0.158939,137.852,29.6269)">
   <stop style="stop-color:black;stop-opacity:1" offset="0.0"/>
   <stop style="stop-color:rgb(13,13,13);stop-opacity:1" offset="0.2"/>
   <stop style="stop-color:rgb(50,50,50);stop-opacity:1" offset="0.3"/>
   <stop style="stop-color:rgb(94,94,94);stop-opacity:1" offset="0.3"/>
   <stop style="stop-color:white;stop-opacity:1" offset="0.5"/>
   <stop style="stop-color:rgb(95,95,95);stop-opacity:1" offset="0.9"/>
   <stop style="stop-color:rgb(81,81,81);stop-opacity:0.784314" offset="1.0"/>
  </linearGradient>
  <linearGradient x1="0" id="_Linear3" x2="1" gradientUnits="userSpaceOnUse" y2="0" y1="0" gradientTransform="matrix(0.121046,-2.03602,1.3847,0.177982,138.727,35.0912)">
   <stop style="stop-color:black;stop-opacity:1" offset="0.0"/>
   <stop style="stop-color:rgb(24,24,24);stop-opacity:0.686275" offset="0.4"/>
   <stop style="stop-color:rgb(75,75,75);stop-opacity:0" offset="1.0"/>
  </linearGradient>
  <radialGradient r="1" id="_Radial4" cx="0" gradientUnits="userSpaceOnUse" gradientTransform="matrix(0.924285,-1.94289e-15,4.55191e-15,1.66105,138.098,32.4323)" cy="0">
   <stop style="stop-color:rgb(209,216,220);stop-opacity:1" offset="0.0"/>
   <stop style="stop-color:rgb(209,216,220);stop-opacity:0.823529" offset="0.6"/>
   <stop style="stop-color:rgb(209,216,220);stop-opacity:0.419608" offset="0.8"/>
   <stop style="stop-color:rgb(209,216,220);stop-opacity:0" offset="1.0"/>
  </radialGradient>
  <linearGradient x1="0" id="_Linear5" x2="1" gradientUnits="userSpaceOnUse" y2="0" y1="0" gradientTransform="matrix(-0.0379099,-3.27825,4.82387,-0.0257632,138.055,34.3564)">
   <stop style="stop-color:rgb(58,67,72);stop-opacity:1" offset="0.0"/>
   <stop style="stop-color:rgb(209,216,220);stop-opacity:1" offset="1.0"/>
  </linearGradient>
  <linearGradient x1="0" id="_Linear6" x2="1" gradientUnits="userSpaceOnUse" y2="0" y1="0" gradientTransform="matrix(9.76828,3.14276,3.14276,-9.76828,218.27,64.4608)">
   <stop style="stop-color:rgb(135,78,52);stop-opacity:1" offset="0.0"/>
   <stop style="stop-color:rgb(132,71,23);stop-opacity:1" offset="1.0"/>
  </linearGradient>
  <radialGradient r="1" id="_Radial8" cx="0" gradientUnits="userSpaceOnUse" gradientTransform="matrix(5.25593,2.02096,4.1531,-10.801,223.945,67.2668)" cy="0">
   <stop style="stop-color:rgb(255,211,138);stop-opacity:1" offset="0.0"/>
   <stop style="stop-color:rgb(255,211,138);stop-opacity:0" offset="1.0"/>
  </radialGradient>
  <radialGradient r="1" id="_Radial9" cx="0" gradientUnits="userSpaceOnUse" gradientTransform="matrix(-6.95466,12.0478,9.86174,5.75568,219.746,74.3515)" cy="0">
   <stop style="stop-color:black;stop-opacity:0" offset="0.0"/>
   <stop style="stop-color:black;stop-opacity:0.141176" offset="0.7"/>
   <stop style="stop-color:black;stop-opacity:0.533333" offset="0.8"/>
   <stop style="stop-color:black;stop-opacity:1" offset="1.0"/>
  </radialGradient>
 </defs>
</svg>
